svgs/sharp-solid/heading.svg

<svg xmlns="http://www.w3.org/2000/svg" viewBox="0 0 448 512"><!--! Font Awesome Pro 6.6.0 by @fontawesome - https://fontawesome.com License - https://fontawesome.com/license (Commercial License) Copyright 2024 Fonticons, Inc. --><path d="M0 32l32 0 16 0 64 0 16 0 32 0 0 64-32 0-16 0 0 112 224 0 0-112-16 0-32 0 0-64 32 0 16 0 64 0 16 0 32 0 0 64-32 0-16 0 0 144 0 176 16 0 32 0 0 64-32 0-16 0-64 0-16 0-32 0 0-64 32 0 16 0 0-144-224 0 0 144 16 0 32 0 0 64-32 0-16 0-64 0-16 0L0 480l0-64 32 0 16 0 0-176L48 96 32 96 0 96 0 32z"/></svg>

<svg xmlns="http://www.w3.org/2000/svg" viewBox="0 0 448 512"><!--! Font Awesome Pro 6.4.2 by @fontawesome - https://fontawesome.com License - https://fontawesome.com/license (Commercial License) Copyright 2023 Fonticons, Inc. --><path d="M0 32H32 48h64 16 32V96H128 112V208H336V96H320 288V32h32 16 64 16 32V96H416 400V240 416h16 32v64H416 400 336 320 288V416h32 16V272H112V416h16 32v64H128 112 48 32 0V416H32 48V240 96H32 0V32z"/></svg>
